src/assets/sponsors/dune.svg

<svg fill="none" height="40" viewBox="0 0 114 40" width="114" xmlns="http://www.w3.org/2000/svg"><path d="m19.9892 39.9687c11.0385 0 19.987-8.9473 19.987-19.9843 0-11.03705-8.9485-19.98432371-19.987-19.98432371-11.03861 0-19.9871248 8.94727371-19.9871248 19.98432371 0 11.037 8.9485148 19.9843 19.9871248 19.9843z" fill="#f06040"/><path d="m31.6481 3.75372c-3.2106-2.306-7.0329-3.608304-10.9837-3.7422394-3.9508-.1339346-7.8526.9065194-11.212 2.9897894-3.35938 2.08327-6.02548 5.11579-7.66115 8.71413-1.635671 3.5982-2.167444 7.6007-1.528075 11.5012.639369 3.9004 2.421165 7.5238 5.120065 10.4117 2.6989 2.888 6.19366 4.9109 10.04246 5.8129 3.8487.9021 7.8785.6427 11.5799-.7452 3.7013-1.3879 6.9079-3.8421 9.2142-7.0522 1.5314-2.1314 2.6279-4.5436 3.2269-7.0987s.6888-5.2032.2643-7.7931c-.4245-2.5898-1.3551-5.0707-2.7385-7.30092-1.3834-2.23026-3.1927-4.16622-5.3244-5.69736z" fill="#e55231"/><path d="m3.47949 31.257s13.20761-4.3262 36.48561-11.9162c0 0 1.275 12.4297-11.611 18.9131 0 0-6.3544 3.0455-13.3257 1.0919 0 0-6.94173-1.3103-11.54891-8.0888z" fill="#2b286c"/><g fill="#fff"><path d="m52 10h6.9306c1.237 0 2.3557.2066 3.3562.6197 1.0187.4132 1.8827 1.0329 2.5922 1.8592.7276.8075 1.2824 1.831 1.6644 3.0704.4002 1.2207.6003 2.6479.6003 4.2817s-.2001 3.0704-.6003 4.3098c-.382 1.2207-.9368 2.2442-1.6644 3.0705-.7095.8075-1.5735 1.4178-2.5922 1.831-1.0005.4131-2.1192.6197-3.3562.6197h-6.9306zm6.9306 16.3662c1.3461 0 2.4103-.4038 3.1925-1.2113.8004-.8263 1.2006-2.0845 1.2006-3.7746v-3.0986c0-1.6902-.4002-2.939-1.2006-3.7465-.7822-.8263-1.8464-1.2394-3.1925-1.2394h-3.3289v13.0704z"/><path d="m78.8344 27.2113h-.1364c-.1273.3756-.3002.7324-.5184 1.0704-.2001.3192-.4639.6103-.7913.8732-.3093.2629-.6913.4695-1.146.6197-.4366.1503-.946.2254-1.5281.2254-1.4734 0-2.6012-.4977-3.3834-1.493s-1.1733-2.4131-1.1733-4.2535v-9.2958h3.4926v8.9296c0 1.0141.191 1.7935.573 2.3381.382.5258.9914.7887 1.8282.7887.3456 0 .6821-.047 1.0095-.1409.3457-.0939.6458-.2347.9005-.4225.2546-.2066.4638-.4507.6275-.7324.1638-.3005.2456-.6479.2456-1.0422v-9.7184h3.4926v14.7043h-3.4926z"/><path d="m86.0895 29.662v-14.7043h3.4926v2.4508h.1364c.2911-.7888.7458-1.4461 1.3643-1.9719.6367-.5446 1.5098-.8169 2.6195-.8169 1.4734 0 2.6012.4977 3.3834 1.493s1.1733 2.4131 1.1733 4.2535v9.2958h-3.4926v-8.9296c0-1.0516-.1819-1.8404-.5457-2.3662s-.9641-.7887-1.8009-.7887c-.3638 0-.7185.0563-1.0641.169-.3275.0939-.6276.2441-.9005.4507-.2546.1878-.4638.4319-.6275.7324-.1638.2817-.2456.6197-.2456 1.0141v9.7183z"/><path d="m107.615 30c-1.055 0-2.001-.1784-2.838-.5352-.818-.3756-1.519-.892-2.101-1.5493-.564-.6761-1-1.4836-1.309-2.4225-.31-.9578-.464-2.0282-.464-3.2113 0-1.1643.145-2.216.436-3.1549.31-.939.746-1.7371 1.31-2.3944.564-.6761 1.255-1.1925 2.074-1.5493.818-.3756 1.746-.5634 2.783-.5634 1.11 0 2.074.1972 2.892.5916.819.3943 1.492.9295 2.019 1.6056.528.6761.919 1.4648 1.174 2.3662.273.8826.409 1.831.409 2.8451v1.1831h-9.468v.3662c0 1.0704.291 1.9342.873 2.5915.582.6385 1.446.9578 2.592.9578.873 0 1.583-.1878 2.128-.5634.564-.3756 1.065-.8545 1.501-1.4366l1.883 2.169c-.582.845-1.383 1.5117-2.401 2-1.001.4695-2.165.7042-3.493.7042zm-.054-12.6761c-.928 0-1.665.3193-2.211.9578-.545.6385-.818 1.4648-.818 2.4789v.2253h5.839v-.2535c0-1.0141-.246-1.831-.737-2.4507-.473-.6385-1.164-.9578-2.073-.9578z"/></g></svg>

<svg width="114" height="40" viewBox="0 0 114 40" fill="none" xmlns="http://www.w3.org/2000/svg">
<path d="M19.9892 39.9687C31.0277 39.9687 39.9762 31.0214 39.9762 19.9844C39.9762 8.94735 31.0277 7.62939e-05 19.9892 7.62939e-05C8.95059 7.62939e-05 0.0020752 8.94735 0.0020752 19.9844C0.0020752 31.0214 8.95059 39.9687 19.9892 39.9687Z" fill="#F06040"/>
<path d="M31.6481 3.75372C28.4375 1.44772 24.6152 0.145416 20.6644 0.0114806C16.7136 -0.122454 12.8118 0.918 9.4524 3.00127C6.09302 5.08454 3.42692 8.11706 1.79125 11.7154C0.155579 15.3136 -0.376194 19.3161 0.263175 23.2166C0.902544 27.117 2.68434 30.7404 5.38324 33.6283C8.08214 36.5163 11.5769 38.5392 15.4257 39.4412C19.2744 40.3433 23.3042 40.0839 27.0056 38.696C30.7069 37.3081 33.9135 34.8539 36.2198 31.6438C37.7512 29.5124 38.8477 27.1002 39.4467 24.5451C40.0457 21.99 40.1355 19.3419 39.711 16.752C39.2865 14.1622 38.3559 11.6813 36.9725 9.45108C35.5891 7.22082 33.7798 5.28486 31.6481 3.75372V3.75372Z" fill="#E55231"/>
<path d="M3.47949 31.257C3.47949 31.257 16.6871 26.9308 39.9651 19.3408C39.9651 19.3408 41.2401 31.7705 28.3541 38.2539C28.3541 38.2539 21.9997 41.2994 15.0284 39.3458C15.0284 39.3458 8.08667 38.0355 3.47949 31.257Z" fill="#2B286C"/>
<path d="M52 10H58.9306C60.1676 10 61.2863 10.2066 62.2868 10.6197C63.3055 11.0329 64.1695 11.6526 64.879 12.4789C65.6066 13.2864 66.1614 14.3099 66.5434 15.5493C66.9436 16.77 67.1437 18.1972 67.1437 19.831C67.1437 21.4648 66.9436 22.9014 66.5434 24.1408C66.1614 25.3615 65.6066 26.385 64.879 27.2113C64.1695 28.0188 63.3055 28.6291 62.2868 29.0423C61.2863 29.4554 60.1676 29.662 58.9306 29.662H52V10ZM58.9306 26.3662C60.2767 26.3662 61.3409 25.9624 62.1231 25.1549C62.9235 24.3286 63.3237 23.0704 63.3237 21.3803V18.2817C63.3237 16.5915 62.9235 15.3427 62.1231 14.5352C61.3409 13.7089 60.2767 13.2958 58.9306 13.2958H55.6017V26.3662H58.9306Z" fill="white"/>
<path d="M78.8344 27.2113H78.698C78.5707 27.5869 78.3978 27.9437 78.1796 28.2817C77.9795 28.6009 77.7157 28.892 77.3883 29.1549C77.079 29.4178 76.697 29.6244 76.2423 29.7746C75.8057 29.9249 75.2963 30 74.7142 30C73.2408 30 72.113 29.5023 71.3308 28.507C70.5486 27.5117 70.1575 26.0939 70.1575 24.2535V14.9577H73.6501V23.8873C73.6501 24.9014 73.8411 25.6808 74.2231 26.2254C74.6051 26.7512 75.2145 27.0141 76.0513 27.0141C76.3969 27.0141 76.7334 26.9671 77.0608 26.8732C77.4065 26.7793 77.7066 26.6385 77.9613 26.4507C78.2159 26.2441 78.4251 26 78.5888 25.7183C78.7526 25.4178 78.8344 25.0704 78.8344 24.6761V14.9577H82.327V29.662H78.8344V27.2113Z" fill="white"/>
<path d="M86.0895 29.662V14.9577H89.5821V17.4085H89.7185C90.0096 16.6197 90.4643 15.9624 91.0828 15.4366C91.7195 14.892 92.5926 14.6197 93.7023 14.6197C95.1757 14.6197 96.3035 15.1174 97.0857 16.1127C97.8679 17.108 98.259 18.5258 98.259 20.3662V29.662H94.7664V20.7324C94.7664 19.6808 94.5845 18.892 94.2207 18.3662C93.8569 17.8404 93.2566 17.5775 92.4198 17.5775C92.056 17.5775 91.7013 17.6338 91.3557 17.7465C91.0282 17.8404 90.7281 17.9906 90.4552 18.1972C90.2006 18.385 89.9914 18.6291 89.8277 18.9296C89.6639 19.2113 89.5821 19.5493 89.5821 19.9437V29.662H86.0895Z" fill="white"/>
<path d="M107.615 30C106.56 30 105.614 29.8216 104.777 29.4648C103.959 29.0892 103.258 28.5728 102.676 27.9155C102.112 27.2394 101.676 26.4319 101.367 25.493C101.057 24.5352 100.903 23.4648 100.903 22.2817C100.903 21.1174 101.048 20.0657 101.339 19.1268C101.649 18.1878 102.085 17.3897 102.649 16.7324C103.213 16.0563 103.904 15.5399 104.723 15.1831C105.541 14.8075 106.469 14.6197 107.506 14.6197C108.616 14.6197 109.58 14.8169 110.398 15.2113C111.217 15.6056 111.89 16.1408 112.417 16.8169C112.945 17.493 113.336 18.2817 113.591 19.1831C113.864 20.0657 114 21.0141 114 22.0282V23.2113H104.532V23.5775C104.532 24.6479 104.823 25.5117 105.405 26.169C105.987 26.8075 106.851 27.1268 107.997 27.1268C108.87 27.1268 109.58 26.939 110.125 26.5634C110.689 26.1878 111.19 25.7089 111.626 25.1268L113.509 27.2958C112.927 28.1408 112.126 28.8075 111.108 29.2958C110.107 29.7653 108.943 30 107.615 30ZM107.561 17.3239C106.633 17.3239 105.896 17.6432 105.35 18.2817C104.805 18.9202 104.532 19.7465 104.532 20.7606V20.9859H110.371V20.7324C110.371 19.7183 110.125 18.9014 109.634 18.2817C109.161 17.6432 108.47 17.3239 107.561 17.3239Z" fill="white"/>
</svg>
